X:24
T:Emma
M:3/4
K:Em
EG |"Em" B3 cB2 | "Em/D#"G2E2 EG |"Em/D" B3 cB2 | "Em/C#"G2E2 EG |
"Am"F3^E FG |"B7" A2G2F2 |"Em" E2 EF GA |"B7" B4 EG |
 "Em" B3 cB2 | "Em/D#"G2E2 EG |"Em/D" B3 cB2 | "Em/C#"G2E2 EG |
"F#7"F4 FG |"B7" A2G2F2 |"Em" E2 EF GF | EF GA Bd ||
  "Am"e4e2 |"D7" e2d2c2 |"G" B3^ABc |"Em" B2A2G2 | "F#7"F4FG |"B7" A2G2F2 | "Em"E2 EF GA |"E7" B2c2d2 |
 "Am"e4e2 | "D7"e2d2c2 |"G" B4B2 | "Em"B2A2G2 | "F#7"F4FG |"B7" A2G2F2 | "Em"E2 EF GF | E6 |]
